X:375
T: ARM UND KLEIN IST MEINE HUETTE
N: B0450
O: Europa, Mitteleuropa, Deutschland
R: Liebes - Lied, Liebes - Lust, Moral
M: 4/4
L: 1/8
K: F
FA | c3AcBAB | cAF2z2
FA | AGBGGFFE | E2F2z2
FA | c3AcBAB | cAF2z2
FA | AGBGGFFE | E2F2z2
cc | f3eedd^c | ^cdd2z2
=cc | f3ccBBA | A2G2z2
FA | c3AcBAB | cAF2z2
FA | AGBGGFFE | E2F2z2

@@@ Tune index: 2178
